energyServicePortal_ewp_adv/src/main/webapp/resources/img/logo_iderms.svg

<svg xmlns="http://www.w3.org/2000/svg" xmlns:xlink="http://www.w3.org/1999/xlink" width="180" height="48" viewBox="0 0 180 48">
    <defs>
        <path id="fzxghhnq5a" d="M24.326 0C37.63 0 48.438 10.568 48.653 23.685l.003.398-.003.379c-.192 12.35-9.782 22.439-22.003 23.587l-.372.032 3.283-6.293-3.054-5.854.17-.032c5.54-1.072 9.737-5.863 9.82-11.643l.002-.176-.002-.199c-.107-6.496-5.407-11.742-11.971-11.847l-.2-.001-.201.001c-6.562.106-11.86 5.353-11.966 11.849l-.002.197.002.177c.084 5.771 4.267 10.557 9.798 11.639l.168.031 3.055 5.858-3.263 6.259-.368-.039C9.543 46.655.189 36.655.003 24.454L0 24.084l.003-.399C.218 10.568 11.027 0 24.326 0z"/>
        <path id="3k1jzf4kpd" d="M24.326 0C37.63 0 48.438 10.568 48.653 23.685l.003.398-.003.379c-.192 12.35-9.782 22.439-22.003 23.587l-.372.032 3.283-6.293-3.054-5.854.17-.032c5.54-1.072 9.737-5.863 9.82-11.643l.002-.176-.002-.199c-.107-6.496-5.407-11.742-11.971-11.847l-.2-.001-.201.001c-6.562.106-11.86 5.353-11.966 11.849l-.002.197.002.177c.084 5.771 4.267 10.557 9.798 11.639l.168.031 3.055 5.858-3.263 6.259-.368-.039C9.543 46.655.189 36.655.003 24.454L0 24.084l.003-.399C.218 10.568 11.027 0 24.326 0z"/>
        <path id="ct541vuc4g" d="M14.861 25.44L0.091 25.44 0.091 0.042 14.861 0.042 14.861 4.413 5.529 4.413 5.529 10.181 14.861 10.181 14.861 14.55 5.529 14.55 5.529 21.035 14.861 21.035z"/>
        <path id="91veifl0ei" d="M5.468 11.245h1.716c1.68 0 2.919-.28 3.724-.843.8-.56 1.2-1.442 1.2-2.646 0-1.19-.408-2.039-1.232-2.542-.815-.505-2.08-.755-3.797-.755H5.468v6.786zm-.079 4.26v9.893H0V0h7.407c3.453 0 6.01.622 7.668 1.866 1.658 1.247 2.485 3.135 2.485 5.67 0 1.48-.41 2.798-1.231 3.95-.825 1.153-1.987 2.057-3.497 2.711 3.827 5.656 6.315 9.55 7.477 11.201h-5.983L8.26 15.505h-2.87z"/>
        <path id="pnjdxebwik" d="M0 0h5.669l4.355 11.783c.277.794.542 1.6.796 2.418l.76 2.451h.173c.276-.817.536-1.634.778-2.451.242-.818.5-1.624.777-2.418L17.56 0h5.67v25.2h-4.667V14.677c0-.59.023-1.243.069-1.958.046-.715.098-1.441.155-2.18.058-.737.121-1.464.19-2.179.07-.715.139-1.368.208-1.958h-.139l-2.074 5.926-3.94 10.59h-2.938l-3.976-10.59-2.04-5.926h-.137c.069.59.138 1.243.207 1.958.07.715.138 1.442.207 2.18.07.738.127 1.464.173 2.18.046.714.07 1.367.07 1.957V25.2H0V0z"/>
        <path id="01t5izvfbm" d="M.046.042h7.136c1.992 0 3.779.252 5.36.755 1.582.503 2.93 1.276 4.043 2.317 1.113 1.04 1.968 2.35 2.566 3.93.598 1.578.896 3.443.896 5.594 0 2.128-.298 3.993-.896 5.594-.598 1.602-1.441 2.935-2.53 3.999-1.09 1.064-2.409 1.865-3.955 2.402-1.547.538-3.281.807-5.203.807H.046V.042zm6.735 21.327c1.195 0 2.27-.166 3.223-.498.954-.331 1.764-.846 2.43-1.544.667-.697 1.178-1.595 1.534-2.692.356-1.098.535-2.425.535-3.98 0-1.555-.179-2.876-.535-3.962-.356-1.086-.867-1.967-1.534-2.641-.666-.675-1.476-1.167-2.43-1.475-.954-.31-2.028-.464-3.223-.464H5.195V21.37h1.586z"/>
        <path id="un7i6usmyo" d="M0 9.792h5.539V27.54H0V9.792zm2.785-4.407c-.802 0-1.466-.252-1.994-.757C.264 4.123 0 3.478 0 2.693 0 1.885.264 1.234.791.74 1.32.247 1.983 0 2.785 0s1.461.247 1.978.74c.517.494.776 1.145.776 1.953 0 .785-.259 1.43-.776 1.935-.517.505-1.176.757-1.978.757z"/>
        <path id="715rev4haq" d="M9.017 25.8c-1.67 0-3.29-.314-4.86-.94-1.569-.628-2.955-1.524-4.157-2.688l2.839-3.427c.89.829 1.887 1.495 2.989 2 1.102.503 2.198.755 3.29.755 1.29 0 2.27-.258 2.938-.773.668-.515 1.002-1.209 1.002-2.082 0-.47-.09-.863-.267-1.176-.179-.314-.429-.594-.752-.84s-.712-.47-1.169-.672l-1.52-.672-3.305-1.41c-.624-.27-1.236-.594-1.837-.975-.601-.38-1.136-.845-1.603-1.394-.468-.549-.846-1.176-1.136-1.881-.289-.706-.434-1.518-.434-2.436 0-1.008.212-1.954.635-2.839.423-.884 1.013-1.646 1.77-2.284C4.197 1.428 5.098.924 6.145.554 7.19.184 8.338 0 9.585 0c1.447 0 2.85.274 4.208.823 1.358.549 2.538 1.338 3.54 2.368l-2.505 3.125c-.78-.65-1.592-1.154-2.438-1.512-.846-.358-1.781-.538-2.805-.538-1.091 0-1.96.23-2.605.69-.646.458-.969 1.102-.969 1.93 0 .449.106.83.318 1.143.211.313.49.593.834.84.346.246.752.47 1.22.672.467.201.968.403 1.502.604l3.24 1.378c.757.313 1.441.672 2.053 1.075.613.403 1.136.873 1.57 1.41.434.538.768 1.16 1.002 1.865.234.706.35 1.506.35 2.402 0 1.008-.205 1.97-.617 2.89-.412.917-1.008 1.718-1.787 2.401-.78.683-1.73 1.226-2.855 1.63-1.125.402-2.4.604-3.824.604z"/>
        <linearGradient id="xu88df6a0b" x1="0%" x2="0%" y1=".209%" y2="644.234%">
            <stop offset="0%" stop-color="#146FB8"/>
            <stop offset="100%" stop-color="#2CB1A4"/>
        </linearGradient>
        <linearGradient id="zv68yogbae" x1=".001%" x2="99.937%" y1="100%" y2="100%">
            <stop offset="0%" stop-color="#146FB8"/>
            <stop offset="100%" stop-color="#2CB1A4"/>
        </linearGradient>
    </defs>
    <g fill="none" fill-rule="evenodd">
        <mask id="xwfq198p8c" fill="#fff">
            <use xlink:href="#fzxghhnq5a"/>
        </mask>
        <path fill="url(#xu88df6a0b)" d="M0 48.081L48.687 48.081 48.687 -0.101 0 -0.101z" mask="url(#xwfq198p8c)"/>
        <g>
            <mask id="bvvertw2yf" fill="#fff">
                <use xlink:href="#3k1jzf4kpd"/>
            </mask>
            <path fill="url(#zv68yogbae)" d="M0 48.081L48.687 48.081 48.687 -0.101 0 -0.101z" mask="url(#bvvertw2yf)"/>
            <g transform="translate(95.33 13.7)">
                <mask id="zazo18kxdh" fill="#fff">
                    <use xlink:href="#ct541vuc4g"/>
                </mask>
                <path fill="#FFF" d="M-1.418 26.94L16.369 26.94 16.369 -1.458 -1.418 -1.458z" mask="url(#zazo18kxdh)"/>
            </g>
            <g transform="translate(113.128 13.7)">
                <mask id="5auahd9jtj" fill="#fff">
                    <use xlink:href="#91veifl0ei"/>
                </mask>
                <path fill="#FFF" d="M-1.508 26.898L21.817 26.898 21.817 -1.5 -1.508 -1.5z" mask="url(#5auahd9jtj)"/>
            </g>
            <g transform="translate(134.85 14)">
                <mask id="vd7cg6qg7l" fill="#fff">
                    <use xlink:href="#pnjdxebwik"/>
                </mask>
                <path fill="#FFF" d="M-1.508 26.7L24.737 26.7 24.737 -1.5 -1.508 -1.5z" mask="url(#vd7cg6qg7l)"/>
            </g>
            <g transform="translate(72.603 13.7)">
                <mask id="5g56ay5mdn" fill="#fff">
                    <use xlink:href="#01t5izvfbm"/>
                </mask>
                <path fill="#FFF" d="M-1.462 26.94L21.556 26.94 21.556 -1.458 -1.462 -1.458z" mask="url(#5g56ay5mdn)"/>
            </g>
            <g transform="translate(60.034 11.6)">
                <mask id="57xqa76cfp" fill="#fff">
                    <use xlink:href="#un7i6usmyo"/>
                </mask>
                <path fill="#FFF" d="M-1.508 29.04L7.047 29.04 7.047 -1.5 -1.508 -1.5z" mask="url(#57xqa76cfp)"/>
            </g>
            <g transform="translate(161.095 13.4)">
                <mask id="076uizwaxr" fill="#fff">
                    <use xlink:href="#715rev4haq"/>
                </mask>
                <path fill="#FFF" d="M-1.508 27.3L19.609 27.3 19.609 -1.5 -1.508 -1.5z" mask="url(#076uizwaxr)"/>
            </g>
        </g>
    </g>
</svg>

<?xml version="1.0" encoding="UTF-8"?>
<svg width="188px" height="50px" viewBox="0 0 188 50" version="1.1" xmlns="http://www.w3.org/2000/svg" xmlns:xlink="http://www.w3.org/1999/xlink">
    <title>Group 2</title>
    <defs>
        <path d="M24.326,0 C37.63,0 48.438,10.568 48.653,23.685 L48.656,24.083 L48.653,24.462 C48.461,36.812 38.871,46.901 26.65,48.049 L26.278,48.081 L29.561,41.788 L26.507,35.934 L26.677,35.902 C32.217,34.83 36.414,30.039 36.497,24.259 L36.499,24.083 L36.497,23.884 C36.39,17.388 31.09,12.142 24.526,12.037 L24.326,12.036 L24.125,12.037 C17.563,12.143 12.265,17.39 12.159,23.886 L12.157,24.083 L12.159,24.26 C12.243,30.031 16.426,34.817 21.957,35.899 L22.125,35.93 L25.18,41.788 L21.917,48.047 L21.549,48.008 C9.543,46.655 0.189,36.655 0.003,24.454 L0,24.084 L0.003,23.685 C0.218,10.568 11.027,0 24.326,0 Z" id="path-1"></path>
        <linearGradient x1="0%" y1="0.209%" x2="0%" y2="644.234%" id="linearGradient-3">
            <stop stop-color="#146FB8" offset="0%"></stop>
            <stop stop-color="#2CB1A4" offset="100%"></stop>
        </linearGradient>
        <path d="M24.326,0 C37.63,0 48.438,10.568 48.653,23.685 L48.656,24.083 L48.653,24.462 C48.461,36.812 38.871,46.901 26.65,48.049 L26.278,48.081 L29.561,41.788 L26.507,35.934 L26.677,35.902 C32.217,34.83 36.414,30.039 36.497,24.259 L36.499,24.083 L36.497,23.884 C36.39,17.388 31.09,12.142 24.526,12.037 L24.326,12.036 L24.125,12.037 C17.563,12.143 12.265,17.39 12.159,23.886 L12.157,24.083 L12.159,24.26 C12.243,30.031 16.426,34.817 21.957,35.899 L22.125,35.93 L25.18,41.788 L21.917,48.047 L21.549,48.008 C9.543,46.655 0.189,36.655 0.003,24.454 L0,24.084 L0.003,23.685 C0.218,10.568 11.027,0 24.326,0 Z" id="path-4"></path>
        <linearGradient x1="0.001%" y1="100%" x2="99.937%" y2="100%" id="linearGradient-6">
            <stop stop-color="#146FB8" offset="0%"></stop>
            <stop stop-color="#2CB1A4" offset="100%"></stop>
        </linearGradient>
        <polygon id="path-7" points="14.861 25.44 0.091 25.44 0.091 0.042 14.861 0.042 14.861 4.413 5.529 4.413 5.529 10.181 14.861 10.181 14.861 14.55 5.529 14.55 5.529 21.035 14.861 21.035"></polygon>
        <path d="M5.468,11.245 L7.184,11.245 C8.864,11.245 10.103,10.965 10.908,10.402 C11.708,9.842 12.108,8.96 12.108,7.756 C12.108,6.566 11.7,5.717 10.876,5.214 C10.061,4.709 8.796,4.459 7.079,4.459 L5.468,4.459 L5.468,11.245 Z M5.389,15.505 L5.389,25.398 L0,25.398 L0,0 L7.407,0 C10.86,0 13.417,0.622 15.075,1.866 C16.733,3.113 17.56,5.001 17.56,7.536 C17.56,9.016 17.15,10.334 16.329,11.486 C15.504,12.639 14.342,13.543 12.832,14.197 C16.659,19.853 19.147,23.747 20.309,25.398 L14.326,25.398 L8.26,15.505 L5.39,15.505 L5.389,15.505 Z" id="path-9"></path>
        <path d="M0,0 L5.669,0 L10.024,11.783 C10.301,12.577 10.566,13.383 10.82,14.201 L11.58,16.652 L11.753,16.652 C12.029,15.835 12.289,15.018 12.531,14.201 C12.773,13.383 13.031,12.577 13.308,11.783 L17.56,0 L23.23,0 L23.23,25.2 L18.563,25.2 L18.563,14.677 C18.563,14.087 18.586,13.434 18.632,12.719 C18.678,12.004 18.73,11.278 18.787,10.539 C18.845,9.802 18.908,9.075 18.977,8.36 C19.047,7.645 19.116,6.992 19.185,6.402 L19.046,6.402 L16.972,12.328 L13.032,22.918 L10.094,22.918 L6.118,12.328 L4.078,6.402 L3.941,6.402 C4.01,6.992 4.079,7.645 4.148,8.36 C4.218,9.075 4.286,9.802 4.355,10.54 C4.425,11.278 4.482,12.004 4.528,12.72 C4.574,13.434 4.598,14.087 4.598,14.677 L4.598,25.2 L0,25.2 L0,0 Z" id="path-11"></path>
        <path d="M0.046,0.042 L7.182,0.042 C9.174,0.042 10.961,0.294 12.542,0.797 C14.124,1.3 15.472,2.073 16.585,3.114 C17.698,4.154 18.553,5.464 19.151,7.044 C19.749,8.622 20.047,10.487 20.047,12.638 C20.047,14.766 19.749,16.631 19.151,18.232 C18.553,19.834 17.71,21.167 16.621,22.231 C15.531,23.295 14.212,24.096 12.666,24.633 C11.119,25.171 9.385,25.44 7.463,25.44 L0.046,25.44 L0.046,0.042 Z M6.781,21.369 C7.976,21.369 9.051,21.203 10.004,20.871 C10.958,20.54 11.768,20.025 12.434,19.327 C13.101,18.63 13.612,17.732 13.968,16.635 C14.324,15.537 14.503,14.21 14.503,12.655 C14.503,11.1 14.324,9.779 13.968,8.693 C13.612,7.607 13.101,6.726 12.434,6.052 C11.768,5.377 10.958,4.885 10.004,4.577 C9.05,4.267 7.976,4.113 6.781,4.113 L5.195,4.113 L5.195,21.37 L6.781,21.37 L6.781,21.369 Z" id="path-13"></path>
        <path d="M0,9.792 L5.539,9.792 L5.539,27.54 L0,27.54 L0,9.792 Z M2.785,5.385 C1.983,5.385 1.319,5.133 0.791,4.628 C0.264,4.123 0,3.478 0,2.693 C0,1.885 0.264,1.234 0.791,0.74 C1.32,0.247 1.983,0 2.785,0 C3.587,0 4.246,0.247 4.763,0.74 C5.28,1.234 5.539,1.885 5.539,2.693 C5.539,3.478 5.28,4.123 4.763,4.628 C4.246,5.133 3.587,5.385 2.785,5.385 Z" id="path-15"></path>
        <path d="M9.017,25.8 C7.347,25.8 5.727,25.486 4.157,24.86 C2.588,24.232 1.202,23.336 -8.8817842e-16,22.172 L2.839,18.745 C3.729,19.574 4.726,20.24 5.828,20.745 C6.93,21.248 8.026,21.5 9.118,21.5 C10.408,21.5 11.388,21.242 12.056,20.727 C12.724,20.212 13.058,19.518 13.058,18.645 C13.058,18.175 12.968,17.782 12.791,17.469 C12.612,17.155 12.362,16.875 12.039,16.629 C11.716,16.383 11.327,16.159 10.87,15.957 L9.35,15.285 L6.045,13.875 C5.421,13.605 4.809,13.281 4.208,12.9 C3.607,12.52 3.072,12.055 2.605,11.506 C2.137,10.957 1.759,10.33 1.469,9.625 C1.18,8.919 1.035,8.107 1.035,7.189 C1.035,6.181 1.247,5.235 1.67,4.35 C2.093,3.466 2.683,2.704 3.44,2.066 C4.197,1.428 5.098,0.924 6.145,0.554 C7.19,0.184 8.338,0 9.585,0 C11.032,0 12.435,0.274 13.793,0.823 C15.151,1.372 16.331,2.161 17.333,3.191 L14.828,6.316 C14.048,5.666 13.236,5.162 12.39,4.804 C11.544,4.446 10.609,4.266 9.585,4.266 C8.494,4.266 7.625,4.496 6.98,4.956 C6.334,5.414 6.011,6.058 6.011,6.886 C6.011,7.335 6.117,7.716 6.329,8.029 C6.54,8.342 6.819,8.622 7.163,8.869 C7.509,9.115 7.915,9.339 8.383,9.541 C8.85,9.742 9.351,9.944 9.885,10.145 L13.125,11.523 C13.882,11.836 14.566,12.195 15.178,12.598 C15.791,13.001 16.314,13.471 16.748,14.008 C17.182,14.546 17.516,15.168 17.75,15.873 C17.984,16.579 18.1,17.379 18.1,18.275 C18.1,19.283 17.895,20.245 17.483,21.165 C17.071,22.082 16.475,22.883 15.696,23.566 C14.916,24.249 13.966,24.792 12.841,25.196 C11.716,25.598 10.441,25.8 9.017,25.8 L9.017,25.8 Z" id="path-17"></path>
    </defs>
    <g id="Page-1" stroke="none" stroke-width="1" fill="none" fill-rule="evenodd">
        <g id="Group-2">
            <g id="Clipped" transform="translate(4.000000, 1.000000)">
                <mask id="mask-2" fill="white">
                    <use xlink:href="#path-1"></use>
                </mask>
                <g id="prefix__a"></g>
                <polygon id="Path" fill="url(#linearGradient-3)" fill-rule="nonzero" mask="url(#mask-2)" points="0 48.081 48.687 48.081 48.687 -0.101 0 -0.101"></polygon>
            </g>
            <g id="Clipped" transform="translate(4.000000, 1.000000)">
                <mask id="mask-5" fill="white">
                    <use xlink:href="#path-4"></use>
                </mask>
                <g id="prefix__d"></g>
                <polygon id="Path" fill="url(#linearGradient-6)" fill-rule="nonzero" mask="url(#mask-5)" points="0 48.081 48.687 48.081 48.687 -0.101 0 -0.101"></polygon>
            </g>
            <g id="Group" transform="translate(99.330000, 14.700000)">
                <g id="Clipped">
                    <mask id="mask-8" fill="white">
                        <use xlink:href="#path-7"></use>
                    </mask>
                    <g id="prefix__g"></g>
                    <polygon id="Path" fill="#FFFFFF" fill-rule="nonzero" mask="url(#mask-8)" points="-1.418 26.94 16.369 26.94 16.369 -1.458 -1.418 -1.458"></polygon>
                </g>
            </g>
            <g id="Group" transform="translate(117.128000, 14.700000)">
                <g id="Clipped">
                    <mask id="mask-10" fill="white">
                        <use xlink:href="#path-9"></use>
                    </mask>
                    <g id="prefix__i"></g>
                    <polygon id="Path" fill="#FFFFFF" fill-rule="nonzero" mask="url(#mask-10)" points="-1.508 26.898 21.817 26.898 21.817 -1.5 -1.508 -1.5"></polygon>
                </g>
            </g>
            <g id="Group" transform="translate(138.850000, 15.000000)">
                <g id="Clipped">
                    <mask id="mask-12" fill="white">
                        <use xlink:href="#path-11"></use>
                    </mask>
                    <g id="prefix__k"></g>
                    <polygon id="Path" fill="#FFFFFF" fill-rule="nonzero" mask="url(#mask-12)" points="-1.508 26.7 24.737 26.7 24.737 -1.5 -1.508 -1.5"></polygon>
                </g>
            </g>
            <g id="Group" transform="translate(76.603000, 14.700000)">
                <g id="Clipped">
                    <mask id="mask-14" fill="white">
                        <use xlink:href="#path-13"></use>
                    </mask>
                    <g id="prefix__m"></g>
                    <polygon id="Path" fill="#FFFFFF" fill-rule="nonzero" mask="url(#mask-14)" points="-1.462 26.94 21.556 26.94 21.556 -1.458 -1.462 -1.458"></polygon>
                </g>
            </g>
            <g id="Group" transform="translate(64.034000, 12.600000)">
                <g id="Clipped">
                    <mask id="mask-16" fill="white">
                        <use xlink:href="#path-15"></use>
                    </mask>
                    <g id="prefix__o"></g>
                    <polygon id="Path" fill="#FFFFFF" fill-rule="nonzero" mask="url(#mask-16)" points="-1.508 29.04 7.047 29.04 7.047 -1.5 -1.508 -1.5"></polygon>
                </g>
            </g>
            <g id="Group" transform="translate(165.095000, 14.400000)">
                <g id="Clipped">
                    <mask id="mask-18" fill="white">
                        <use xlink:href="#path-17"></use>
                    </mask>
                    <g id="prefix__q"></g>
                    <polygon id="Path" fill="#FFFFFF" fill-rule="nonzero" mask="url(#mask-18)" points="-1.508 27.3 19.609 27.3 19.609 -1.5 -1.508 -1.5"></polygon>
                </g>
            </g>
            <rect id="Rectangle" x="0" y="0" width="188" height="50"></rect>
        </g>
    </g>
</svg>
